X:19282
T:Ai! Pachn
T:Ai! Pinn
T:D'equ a Somi
R:Fandangu
C:Tradicional
S:Msica Tradicional Asturiana, (C) Tello & Tito. Asturies, 2001.
S:http://pagina.de/MusTradAst <telloytito@asturies.org>
A:Asturies
Z:Les cuarenta principales
M:3/4
L:1/4
Q:3/4=74
K:C
|: C2 E|GGG|A2 A|A2 G|A2 G|FED|GFE|D2 C :|
|: CB,C|D3|CB,C|D3|DEF|GAG|FED|[1 G3 :|[2 C3-|C3||
